X:1
T:C Major Thomas Tallis, 1567
T:Matthew Parker?, 1567 446. 446. 446. 446. 
T:Psalm 1 No copyright. Transcribed from The Whole Psalter Translated, 1567.
%%score [ 1 2 3 4 ]
L:1/8
M:24/4
K:C
V:1 treble nm="Meane" snm="M."
V:2 treble nm="Counter\nTenor" snm="C."
V:3 treble-8 nm="Tenor" snm="T."
V:4 bass nm="Bass" snm="B."
V:1
"^1. Man blest no doubt Who walk not out In  wicked men's affairs:  And stands no day  In sinners way,   Nor sit in scorner's chairs." D2 D2 D2 ^C4 D2 F4 E2 E4 E2 E4 A2 A2 ^G4 A4 z4 || %1
 A2 A2 A2 G4 G2 F3 E D2 ^C4 D2 E4 E2 D4 C2 D4 z4 || %2
"^1. But hold e'en still God's law in will, With all his heart's delight:   And will him use,  On it   to muse,     To  keep     it    day  and  night." F2 F2 F2 F4 F2 F4 E2 F4 F2 c4 c2 G3 F D2 G4 z4 || %3
 A2 A2 A2 _B4 A2 G3 F F2 E4 G2 F4 E2 D4 ^C2 D16 |] %4
V:2
"^2. He like shall be The planted tree, Nigh set the water's course: Which fruit in tide, Whole leaves abide, All prosp'reth what he does." A2 A2 A2 A4 A2 d4 B2 c4 c2 B3 c d2 e4 e2 e4 z4 || %1
 e2 e2 e2 e4 B2 c2 A4 A4 A2 B4 c2 A4 A2 A4 z4 || %2
"^2. Not so, not so  The wicked do,     Like dust or chaff they be:     Up-hoist by wind,  As light as kind,       From  face   of  earth    to  see." d2 d2 d2 d4 d2 d2 c4 c4 c2 c3 d e2 c2 d2 d2 e4 z4 || %3
 f2 f2 f2 f4 f2 d4 _B2 c4 c2 c4 c2 A4 A2 A16 |] %4
V:3
"^3. Therefore these men, So wicked then, In judgment shall not stand: Nor sinners be In company     Of righteous men of hand." D2 F2 F2 E4 D2 A4 G2 A4 E2 G4 A2 B4 B2 A4 z4 || %1
 c2 c2 c2 B4 G2 A2 F4 E4 F2 G4 E2 F2 E4 D4 z4 || %2
"^3. The Lord doth know, And will avow, Men's ways that are of God: Where shall decay The beaten way   Of   wicked   men   so     broad." A2 A2 A2 A4 A2 _B2 G4 F4 F2 A4 G2 c4 B2 c4 z4 || %3
 c2 c2 c2 d4 c2 _B4 F2 G4 E2 A4 G2 F2 E4 D16 |] %4
V:4
 D,2 D,2 D,2 A,,4 D,2 D,2 E,2 A,,4 z2 A,,2 E,4 F,2 E,4 E,2 A,,4 z4 || %1
 A,,2 A,,2 A,,2 E,4 A,,2 D,2 D,2 A,,4 z2 D,2 G,,4 C,2 D,2 A,,4 D,4 z4 || %2
"^____________________________________\nEdited by B. C. Johnston, 2015.\n  1. All notes half value of original. Bar-lines in original shown dashed; the \"measures\" thus created are unequal.\n  2. Bass m. 2-1, rest at end of bar moved to 2-2, to equalize with other three parts." D,2 D,2 D,2 D,4 D,2 _B,,2 C,4 F,,4 F,2 F,4 C,2 E,2 D,4 C,4 z4 || %3
 F,2 F,2 F,2 _B,,4 F,2 B,,2 D,4 C,4 C,2 A,,3 =B,, C,2 F,,2 A,,4 D,16 |] %4

